X:122
T:Montreal. Le4.122
M:6/8
L:1/8
Q:1/4=100
B:L.Leadley MS#4 c1850
Z:Village Music Project, 2016 Ruairidh Greig
K:C
G|cBcd2e|c2eg3|(gf).d (fe).c|(ed).A (cB).G|
cBcd2e|c2eg3|gfdA2B|c3-c2:|
(B/c/)|d2d cBA|GAB cde|f2A edc|BcdG2B|
d2d cBA|GAB cde|fgf edc|g3-g2G|
cBcd2e|c2eg3|(gf)d (fe)c|(ed)A (cB)G|
cBcd2e|c2eg3|gfd A2B|c3-c2|]

